assets/img/braze_icons/heart-hexagon.svg

<svg fill="none" height="24" viewBox="0 0 24 24" width="24" xmlns="http://www.w3.org/2000/svg"><path clip-rule="evenodd" d="m12.4029 1.18492c-.2658-.05467-.54-.05467-.8058 0-.3073.0632-.5819.21703-.8003.33932l-.0595.03325-7.39997 4.11111-.06314.03487c-.23113.12731-.52175.28738-.74492.52956-.19295.20938-.33897.45754-.4283.72789-.10332.31271-.10211.64449-.10115.90836l.00018.07213v8.11709l-.00018.0721c-.00096.2639-.00217.5957.10115.9084.08933.2704.23535.5185.4283.7279.22316.2422.51376.4022.74489.5295l.06317.0349 7.39997 4.1111.0595.0333c.2184.1223.493.2761.8003.3393.2658.0547.54.0547.8058 0 .3073-.0632.5819-.217.8003-.3393l.0595-.0333 7.4-4.1111.0631-.0348c.2311-.1274.5218-.2874.7449-.5296.193-.2094.339-.4575.4283-.7279.1033-.3127.1021-.6445.1012-.9084l-.0002-.0721v-8.11709l.0002-.07213c.0009-.26387.0021-.59565-.1012-.90836-.0893-.27035-.2353-.51851-.4283-.72789-.2231-.24218-.5138-.40225-.7449-.52956l-.0631-.03487-7.4-4.11111-.0595-.03325c-.2184-.12229-.493-.27612-.8003-.33932zm-4.32555 7.47009c1.25252-1.07019 2.91955-.75581 3.91925.4129.9997-1.16871 2.6451-1.47183 3.9192-.4129 1.2741 1.05892 1.4289 2.85949.4453 4.12519-.6301.8107-2.2435 2.314-3.3222 3.2902-.3584.3243-.5377.4865-.7523.5516-.1846.0559-.3955.0559-.58 0-.2147-.0651-.3939-.2273-.7524-.5516-1.07862-.9762-2.69209-2.4795-3.3221-3.2902-.98362-1.2657-.80728-3.05501.44525-4.12519z" fill="#801ed7" fill-rule="evenodd"/></svg>

<svg width="24" height="24" viewBox="0 0 24 24" fill="none" xmlns="http://www.w3.org/2000/svg">
<path fill-rule="evenodd" clip-rule="evenodd" d="M12.4029 1.18492C12.1371 1.13025 11.8629 1.13025 11.5971 1.18492C11.2898 1.24812 11.0152 1.40195 10.7968 1.52424L10.7373 1.55749L3.33733 5.6686L3.27419 5.70347C3.04306 5.83078 2.75244 5.99085 2.52927 6.23303C2.33632 6.44241 2.1903 6.69057 2.10097 6.96092C1.99765 7.27363 1.99886 7.60541 1.99982 7.86928L2 7.94141V16.0585L1.99982 16.1306C1.99886 16.3945 1.99765 16.7263 2.10097 17.039C2.1903 17.3094 2.33632 17.5575 2.52927 17.7669C2.75243 18.0091 3.04303 18.1691 3.27416 18.2964L3.33733 18.3313L10.7373 22.4424L10.7968 22.4757C11.0152 22.598 11.2898 22.7518 11.5971 22.815C11.8629 22.8697 12.1371 22.8697 12.4029 22.815C12.7102 22.7518 12.9848 22.598 13.2032 22.4757L13.2627 22.4424L20.6627 18.3313L20.7258 18.2965C20.9569 18.1691 21.2476 18.0091 21.4707 17.7669C21.6637 17.5575 21.8097 17.3094 21.899 17.039C22.0023 16.7263 22.0011 16.3945 22.0002 16.1306L22 16.0585V7.94141L22.0002 7.86928C22.0011 7.60541 22.0023 7.27363 21.899 6.96092C21.8097 6.69057 21.6637 6.44241 21.4707 6.23303C21.2476 5.99085 20.9569 5.83078 20.7258 5.70347L20.6627 5.6686L13.2627 1.55749L13.2032 1.52424C12.9848 1.40195 12.7102 1.24812 12.4029 1.18492ZM8.07735 8.65501C9.32987 7.58482 10.9969 7.8992 11.9966 9.06791C12.9963 7.8992 14.6417 7.59608 15.9158 8.65501C17.1899 9.71393 17.3447 11.5145 16.3611 12.7802C15.731 13.5909 14.1176 15.0942 13.0389 16.0704C12.6805 16.3947 12.5012 16.5569 12.2866 16.622C12.102 16.6779 11.8911 16.6779 11.7066 16.622C11.4919 16.5569 11.3127 16.3947 10.9542 16.0704C9.87558 15.0942 8.26211 13.5909 7.6321 12.7802C6.64848 11.5145 6.82482 9.72519 8.07735 8.65501Z" fill="#801ED7"/>
</svg>
